paymentMethods/weChatPay.svg

<svg width="128" height="64" viewBox="0 0 128 64" fill="none" xmlns="http://www.w3.org/2000/svg">
<rect width="128" height="64" rx="6" fill="white"/>
<path d="M18.5055 36.0225C18.242 36.1565 17.9368 36.183 17.6541 36.0965C17.3715 36.0099 17.1334 35.8171 16.9901 35.5585L16.9152 35.3939L13.7832 28.5274C13.7491 28.4508 13.7313 28.368 13.7308 28.2842C13.7318 28.1326 13.7925 27.9876 13.8996 27.8804C14.0068 27.7733 14.1518 27.7127 14.3034 27.7117C14.4262 27.7103 14.546 27.7498 14.6439 27.8239L18.3372 30.4433C18.6162 30.6263 18.9427 30.7238 19.2764 30.7239C19.477 30.7251 19.6761 30.6896 19.8639 30.6192L37.2339 22.8995C34.1206 19.2287 29.0017 16.8339 23.1904 16.8339C13.6972 16.8339 6 23.2475 6 31.158C6 35.4762 8.31626 39.3603 11.9385 41.9872C12.0879 42.0931 12.2097 42.2334 12.2937 42.3961C12.3777 42.5589 12.4214 42.7395 12.4212 42.9226C12.4202 43.0497 12.4 43.1758 12.3613 43.2968C12.0694 44.3782 11.6129 46.107 11.5867 46.1856C11.5388 46.3172 11.5074 46.4542 11.4932 46.5935C11.4941 46.745 11.5548 46.8901 11.6619 46.9972C11.7691 47.1044 11.9141 47.165 12.0657 47.166C12.1841 47.1617 12.2991 47.1255 12.3987 47.0612L16.1631 44.8872C16.4384 44.7195 16.7538 44.629 17.0761 44.6252C17.2472 44.6257 17.4174 44.6509 17.5813 44.7001C19.4132 45.2192 21.3089 45.4786 23.2129 45.4709C32.6875 45.4709 40.4258 39.0722 40.4258 31.158C40.405 28.7985 39.7104 26.4941 38.4239 24.5161L18.629 35.9477L18.5055 36.0225Z" fill="#1AAD19"/>
<path d="M58.9072 33.2647L58.679 34.0767C58.4881 34.754 58.3048 35.349 58.1738 35.9477C57.9904 35.0758 57.7323 34.1066 57.5003 33.246L55.9698 27.4684L55.9436 27.3674H54.937L53.227 33.2834C52.9164 34.2862 52.647 35.188 52.4561 35.9776C52.3102 35.3527 52.1306 34.6567 51.9472 33.927L50.2858 27.4684L50.2559 27.3674H49.0996L51.8836 37.9084L51.9098 38.0132H52.8977L54.6863 31.9737C55.0194 30.9372 55.2364 30.129 55.3935 29.418C55.547 30.1664 55.7677 30.9859 56.0222 31.9588L57.5714 37.9009L57.5975 38.0057H58.6004L61.7399 27.5283L61.7923 27.3487H60.6323L58.9072 33.2647Z" fill="#4E4E4E"/>
<path d="M63.1506 33.302C63.4313 31.7192 64.4715 31.1504 65.3621 31.1504C65.6099 31.1374 65.8577 31.1755 66.0901 31.2624C66.3225 31.3493 66.5345 31.4832 66.713 31.6556C67.1101 32.1126 67.3305 32.6966 67.3341 33.302H63.1506ZM65.4557 30.1289C63.3714 30.1289 61.9719 31.7978 61.9719 34.2824C61.9719 36.5949 63.4201 38.1478 65.5754 38.1478C66.4027 38.1847 67.2261 38.0136 67.9702 37.6502L68.1349 37.5566L67.6447 36.7109L67.5324 36.7633C66.9477 37.0359 66.3061 37.1642 65.6615 37.1375C64.0824 37.1375 63.1469 36.0973 63.0795 34.2862H68.4193L68.4567 34.129C68.4866 33.9687 68.4979 33.8055 68.4904 33.6426C68.4861 32.893 68.2958 32.1563 67.9366 31.4984C67.6901 31.0631 67.3277 30.7046 66.8898 30.4628C66.4518 30.2211 65.9554 30.1055 65.4557 30.1289" fill="#4E4E4E"/>
<path d="M77.0967 36.711C76.413 36.9963 75.6785 37.1401 74.9376 37.1338C72.3519 37.1338 70.8215 35.4986 70.8215 32.7595C70.8215 29.9156 72.4118 28.2168 75.0761 28.2168C75.7524 28.2017 76.4243 28.3292 77.0481 28.591L77.1641 28.6471L77.6842 27.7453L77.527 27.6592C76.7553 27.3001 75.9076 27.1344 75.0574 27.1765C71.8318 27.1765 69.6615 29.4217 69.6615 32.7295C69.6615 36.7259 72.3819 38.1441 74.7094 38.1441C75.6819 38.1711 76.6489 37.9899 77.5458 37.6128L77.7179 37.5267L77.209 36.6474L77.0967 36.711Z" fill="#4E4E4E"/>
<path d="M82.3579 30.129C81.8002 30.1253 81.2532 30.2825 80.7826 30.5818C80.5097 30.7421 80.2666 30.9484 80.0641 31.1917V27.1916H78.9415V38.0058H80.0641V33.3508C80.0526 33.1272 80.0792 32.9032 80.1427 32.6885C80.2883 32.2644 80.559 31.8944 80.919 31.6273C81.279 31.3601 81.7116 31.2082 82.1596 31.1917C83.7312 31.1917 83.9632 32.6361 83.9632 33.5005V37.9908H85.0858V33.4144C85.0858 30.2974 82.8069 30.1402 82.3504 30.1402" fill="#4E4E4E"/>
<path d="M95.1815 28.6695H94.0589V30.3795H92.8129V31.3038H94.044V35.708C94.044 36.5837 94.2086 37.2048 94.5416 37.579C94.7134 37.7802 94.9296 37.9386 95.1731 38.0419C95.4167 38.1451 95.6809 38.1904 95.9449 38.174C96.3217 38.1842 96.6964 38.1154 97.045 37.9719L97.2284 37.8933L96.7531 37.0739H96.6521C96.4502 37.1149 96.2444 37.1338 96.0384 37.13C95.4322 37.13 95.174 36.7558 95.174 35.8278V31.3038H97.2545V30.3795H95.174L95.1815 28.6695Z" fill="#4E4E4E"/>
<path d="M103.373 28.3814C103.784 28.3178 104.199 28.2878 104.615 28.2916C106.269 28.2916 107.212 29.0736 107.212 30.4319C107.212 31.8988 106.217 32.7407 104.48 32.7407C104.103 32.752 103.727 32.7181 103.358 32.6397L103.373 28.3814ZM104.649 27.285C103.896 27.2855 103.145 27.3518 102.404 27.4833L102.239 27.5132V37.9869H103.361V33.6799C103.708 33.7323 104.059 33.7548 104.409 33.7473C105.764 33.7473 106.886 33.3207 107.567 32.5424C108.088 31.9371 108.356 31.1546 108.316 30.3571C108.332 29.9591 108.265 29.5621 108.118 29.1915C107.972 28.821 107.75 28.4852 107.466 28.2055C106.849 27.603 105.865 27.285 104.623 27.285" fill="#4E4E4E"/>
<path d="M120.788 30.3084L118.962 35.1729C118.816 35.5471 118.685 35.9213 118.587 36.2543C118.471 35.9026 118.344 35.5396 118.213 35.2141L116.297 30.4431L116.249 30.3159H115.04L117.858 37.3545C117.907 37.4259 117.934 37.5107 117.934 37.5977C117.934 37.6846 117.907 37.7695 117.858 37.8409C117.586 38.5023 117.188 39.1047 116.686 39.6146C116.339 39.9435 115.927 40.1982 115.478 40.363L115.276 40.4416L116.125 41.3209C116.513 41.1161 116.87 40.8565 117.184 40.5501C118.157 39.7044 118.771 38.4172 119.702 36.0223L121.921 30.503L122 30.3121L120.788 30.3084Z" fill="#4E4E4E"/>
<path d="M87.9185 34.8138C88.4124 34.3348 89.3329 34.0953 90.665 34.0953H90.7998V35.4649C90.7999 35.5926 90.7771 35.7194 90.7324 35.839C90.592 36.2432 90.3242 36.5908 89.9692 36.8297C89.6143 37.0686 89.1914 37.1858 88.7641 37.1637C88.5918 37.1713 88.4199 37.142 88.2598 37.0777C88.0998 37.0134 87.9553 36.9155 87.8362 36.7908C87.7171 36.666 87.6261 36.5172 87.5693 36.3543C87.5125 36.1914 87.4912 36.0183 87.5069 35.8465C87.4987 35.6554 87.5308 35.4647 87.6011 35.2868C87.6714 35.1089 87.7782 34.9477 87.9147 34.8138M91.9298 36.071V33.2159C91.9298 31.2028 90.9869 30.1401 89.2057 30.1401C88.4109 30.1449 87.6333 30.3717 86.9605 30.7949L86.8258 30.8772L87.316 31.7267L87.4395 31.6443C87.9402 31.3223 88.5244 31.1545 89.1196 31.1616H89.1458C89.3561 31.148 89.5669 31.1764 89.7661 31.2451C89.9653 31.3139 90.1487 31.4216 90.3058 31.562C90.4851 31.773 90.6202 32.0179 90.7031 32.282C90.786 32.5462 90.815 32.8243 90.7885 33.0999C89.0423 33.0999 87.795 33.4741 87.0466 34.2225C86.814 34.452 86.6312 34.7269 86.5096 35.0302C86.3879 35.3334 86.33 35.6584 86.3394 35.985C86.336 36.2874 86.3954 36.5872 86.5137 36.8655C86.6321 37.1439 86.8068 37.3947 87.0269 37.6021C87.247 37.8095 87.5076 37.9691 87.7925 38.0708C88.0773 38.1724 88.3801 38.2139 88.6818 38.1927C89.1021 38.2002 89.5192 38.1191 89.906 37.9547C90.2928 37.7903 90.6407 37.5463 90.927 37.2385L91.0018 38.0131H92.0645L92.0271 37.7811C91.9486 37.2171 91.9148 36.6478 91.9261 36.0785" fill="#4E4E4E"/>
<path d="M113.068 35.4649C113.07 35.5928 113.047 35.7199 113.001 35.839C112.858 36.2418 112.59 36.5881 112.235 36.8266C111.881 37.0652 111.459 37.1833 111.032 37.1637C110.86 37.1713 110.688 37.142 110.528 37.0777C110.368 37.0134 110.224 36.9155 110.104 36.7908C109.985 36.666 109.894 36.5172 109.838 36.3543C109.781 36.1914 109.759 36.0183 109.775 35.8465C109.767 35.6554 109.799 35.4647 109.869 35.2868C109.94 35.1089 110.046 34.9477 110.183 34.8138C110.677 34.3348 111.597 34.0953 112.926 34.0953H113.064L113.068 35.4649ZM114.191 36.071V33.2159C114.191 31.2028 113.248 30.1401 111.466 30.1401C110.705 30.1467 109.959 30.3545 109.304 30.7425L109.188 30.8136L109.674 31.6556L109.794 31.577C110.278 31.2932 110.83 31.1458 111.392 31.1504H111.418C111.628 31.1368 111.839 31.1652 112.038 31.2339C112.237 31.3026 112.421 31.4104 112.578 31.5508C112.755 31.7628 112.89 32.0078 112.972 32.2717C113.055 32.5356 113.085 32.8132 113.06 33.0887C111.314 33.0887 110.067 33.4629 109.319 34.2113C109.086 34.4408 108.903 34.7157 108.782 35.0189C108.66 35.3221 108.602 35.6472 108.611 35.9738C108.608 36.2762 108.667 36.576 108.786 36.8543C108.904 37.1326 109.079 37.3834 109.299 37.5909C109.519 37.7983 109.78 37.9579 110.064 38.0595C110.349 38.1612 110.652 38.2027 110.954 38.1815C111.369 38.1873 111.782 38.1064 112.164 37.944C112.547 37.7817 112.892 37.5414 113.177 37.2385L113.251 38.0131H114.34L114.303 37.7811C114.221 37.2174 114.186 36.648 114.198 36.0785" fill="#4E4E4E"/>
</svg>

<svg xmlns="http://www.w3.org/2000/svg" width="128" height="64" fill="none"><rect width="128" height="64" fill="#fff" rx="6"/><path fill="#1AAD19" d="M18.506 36.023a1.141 1.141 0 0 1-1.516-.465l-.075-.164-3.132-6.867a.577.577 0 0 1 .52-.816.554.554 0 0 1 .34.113l3.694 2.62a1.713 1.713 0 0 0 1.527.175l17.37-7.72c-3.113-3.67-8.232-6.065-14.044-6.065C13.697 16.834 6 23.247 6 31.158c0 4.318 2.316 8.202 5.938 10.83a1.145 1.145 0 0 1 .483.935 1.26 1.26 0 0 1-.06.374c-.292 1.081-.748 2.81-.774 2.889-.048.131-.08.268-.094.407a.576.576 0 0 0 .573.573.658.658 0 0 0 .333-.105l3.764-2.174c.275-.168.59-.258.913-.262.171 0 .341.026.505.075 1.832.52 3.728.779 5.632.77 9.474 0 17.213-6.398 17.213-14.312a12.382 12.382 0 0 0-2.002-6.642L18.629 35.948l-.123.075Z"/><path fill="#4E4E4E" d="m58.907 33.265-.228.812c-.19.677-.374 1.272-.505 1.87a51.808 51.808 0 0 0-.674-2.701l-1.53-5.778-.026-.1h-1.007l-1.71 5.915c-.31 1.003-.58 1.905-.77 2.695-.147-.625-.326-1.321-.51-2.051l-1.661-6.459-.03-.1H49.1l2.784 10.54.026.105h.988l1.788-6.04c.333-1.036.55-1.844.708-2.555.153.748.374 1.568.628 2.54l1.55 5.943.025.105H58.6l3.14-10.478.052-.18h-1.16l-1.725 5.917ZM63.15 33.302c.281-1.583 1.322-2.152 2.212-2.152a1.808 1.808 0 0 1 1.351.506c.397.457.618 1.04.621 1.646h-4.183Zm2.306-3.173c-2.085 0-3.484 1.669-3.484 4.153 0 2.313 1.448 3.866 3.603 3.866a4.954 4.954 0 0 0 2.395-.498l.165-.093-.49-.846-.113.052c-.584.273-1.226.401-1.87.375-1.58 0-2.515-1.04-2.583-2.852h5.34l.038-.157c.03-.16.04-.323.033-.486a4.529 4.529 0 0 0-.553-2.145 2.707 2.707 0 0 0-2.481-1.37M77.097 36.711a5.485 5.485 0 0 1-2.16.423c-2.585 0-4.115-1.635-4.115-4.374 0-2.844 1.59-4.543 4.254-4.543a4.818 4.818 0 0 1 1.972.374l.116.056.52-.902-.157-.086a5.24 5.24 0 0 0-2.47-.482c-3.225 0-5.395 2.245-5.395 5.553 0 3.996 2.72 5.414 5.047 5.414a6.83 6.83 0 0 0 2.837-.531l.172-.086-.509-.88-.112.064ZM82.358 30.129a2.9 2.9 0 0 0-1.575.453 2.74 2.74 0 0 0-.719.61v-4h-1.122v10.814h1.122V33.35a1.977 1.977 0 0 1 .079-.663 2.218 2.218 0 0 1 2.017-1.496c1.571 0 1.803 1.444 1.803 2.309v4.49h1.123v-4.577c0-3.117-2.28-3.274-2.736-3.274M95.181 28.67H94.06v1.71h-1.246v.924h1.231v4.404c0 .876.165 1.497.498 1.871a1.707 1.707 0 0 0 1.403.595c.377.01.751-.059 1.1-.202l.183-.079-.475-.82h-.1c-.203.042-.409.06-.615.057-.606 0-.864-.374-.864-1.302v-4.524h2.08v-.924h-2.08l.007-1.71ZM103.373 28.381a7.66 7.66 0 0 1 1.242-.09c1.654 0 2.597.783 2.597 2.14 0 1.468-.995 2.31-2.732 2.31a4.714 4.714 0 0 1-1.122-.101l.015-4.259Zm1.276-1.096c-.753 0-1.504.067-2.245.198l-.165.03v10.474h1.122V33.68c.347.052.698.075 1.048.067 1.355 0 2.477-.426 3.158-1.205a3.11 3.11 0 0 0 .749-2.185 2.85 2.85 0 0 0-.85-2.151c-.617-.603-1.601-.921-2.843-.921M120.788 30.308l-1.826 4.865c-.146.374-.277.748-.375 1.081a17.725 17.725 0 0 0-.374-1.04l-1.916-4.77-.048-.128h-1.209l2.818 7.039a.43.43 0 0 1 0 .486 5.522 5.522 0 0 1-1.172 1.774 3.52 3.52 0 0 1-1.208.748l-.202.079.849.879a4.573 4.573 0 0 0 1.059-.77c.973-.847 1.587-2.134 2.518-4.529l2.219-5.519.079-.19-1.212-.005ZM87.918 34.814c.494-.48 1.415-.719 2.747-.719h.135v1.37c0 .128-.023.254-.068.374a1.975 1.975 0 0 1-1.968 1.325 1.21 1.21 0 0 1-1.257-1.318 1.364 1.364 0 0 1 .408-1.032m4.015 1.257v-2.855c0-2.013-.943-3.076-2.724-3.076a4.265 4.265 0 0 0-2.246.655l-.134.082.49.85.123-.083c.501-.322 1.085-.49 1.68-.482h.027a1.588 1.588 0 0 1 1.16.4 2.069 2.069 0 0 1 .483 1.538c-1.747 0-2.994.374-3.742 1.122a2.378 2.378 0 0 0-.708 1.763 2.188 2.188 0 0 0 2.343 2.208 2.993 2.993 0 0 0 2.245-.954l.075.774h1.063l-.038-.232a10.796 10.796 0 0 1-.1-1.703M113.068 35.465a.996.996 0 0 1-.067.374 1.992 1.992 0 0 1-1.969 1.325 1.21 1.21 0 0 1-1.257-1.318 1.372 1.372 0 0 1 .408-1.032c.494-.48 1.414-.719 2.743-.719h.138l.004 1.37Zm1.123.606v-2.855c0-2.013-.943-3.076-2.725-3.076a4.316 4.316 0 0 0-2.162.602l-.116.072.486.842.12-.079a3.108 3.108 0 0 1 1.598-.427h.026a1.587 1.587 0 0 1 1.16.4 2.099 2.099 0 0 1 .482 1.539c-1.746 0-2.993.374-3.741 1.122a2.382 2.382 0 0 0-.708 1.762 2.184 2.184 0 0 0 .688 1.618 2.193 2.193 0 0 0 1.655.59 2.99 2.99 0 0 0 2.223-.942l.074.774h1.089l-.037-.232a10.317 10.317 0 0 1-.105-1.703"/></svg>
